iu/cloudinary-rounded.svg

<svg viewBox="0 0 24 24" xmlns="http://www.w3.org/2000/svg" xml:space="preserve" style="fill-rule:evenodd;clip-rule:evenodd;stroke-linejoin:round;stroke-miterlimit:2" height="1em" width="1em">
  <path style="fill:#3348c5" d="M40.607 9.013h.079v.079h-.079z" transform="rotate(.217) scale(.13889)"/>
  <path d="M24 6.75A5.752 5.752 0 0 0 18.25 1H6.75A5.752 5.752 0 0 0 1 6.75v11.5A5.752 5.752 0 0 0 6.75 24h11.5A5.752 5.752 0 0 0 24 18.25V6.75Z" style="fill:#3348c5" transform="translate(-1.043 -1.043) scale(1.04348)"/>
  <path d="M140.25 40.27C132.67 16.493 110.516.18 85.56 0 64.574-.119 45.169 11.411 35.24 29.9 14.924 33.537-.009 51.381-.009 72.02c0 16.685 9.759 31.912 24.919 38.88l1.08.5h.06V99.23a31.981 31.981 0 0 1-15.239-27.231c0-16.248 12.394-30.04 28.549-31.769l3-.31 1.31-2.74c7.639-16.15 24.025-26.449 41.89-26.33 21.421.147 40.141 14.973 45.19 35.79l1 4.11 4.23.07c14.313.302 25.938 12.124 26 26.44 0 10.11-5.83 18.36-15.72 22.55v11.55l.71-.24c15.95-5.21 25.86-18.19 25.86-33.86-.088-18.654-14.086-34.547-32.58-36.99Z" style="fill:#fff;fill-rule:nonzero" transform="translate(1.001 4.796) scale(.12729)"/>
  <path d="m64.56 110 2.38 2.38a.471.471 0 0 1 .146.34c0 .258-.212.47-.47.47H47.83c-4.679 0-8.53-3.851-8.53-8.53V68.14a.472.472 0 0 0-.47-.47h-4.07a.483.483 0 0 1-.472-.48c0-.123.048-.241.132-.33l15.93-15.92a.462.462 0 0 1 .67 0l15.92 15.92a.471.471 0 0 1 .146.34c0 .258-.212.47-.47.47H62.53a.472.472 0 0 0-.47.47V104a8.533 8.533 0 0 0 2.5 6Zm35.2 0 2.38 2.38a.471.471 0 0 1 .146.34c0 .258-.212.47-.47.47H82.99c-4.679 0-8.53-3.851-8.53-8.53V77.31a.472.472 0 0 0-.47-.47H70a.483.483 0 0 1-.472-.48c0-.123.048-.241.132-.33l15.89-15.92a.462.462 0 0 1 .67 0L102.14 76a.471.471 0 0 1 .146.34c0 .258-.212.47-.47.47H97.73a.472.472 0 0 0-.47.47V104a8.533 8.533 0 0 0 2.5 6Zm35.24 0 2.38 2.38a.471.471 0 0 1 .146.34c0 .258-.213.47-.47.47H118.24c-4.681 0-8.535-3.849-8.54-8.53V86.49a.472.472 0 0 0-.47-.47h-4.076a.473.473 0 0 1-.47-.47c0-.128.053-.251.146-.34l15.92-15.93a.481.481 0 0 1 .67 0l15.92 15.93a.469.469 0 0 1-.34.79h-4.08a.472.472 0 0 0-.47.47V104a8.534 8.534 0 0 0 2.55 6Z" style="fill:#fff;fill-rule:nonzero" transform="translate(1.001 4.796) scale(.12729)"/>
</svg>

<svg viewBox="0 0 24 24" version="1.1" xmlns="http://www.w3.org/2000/svg" xml:space="preserve" style="fill-rule:evenodd;clip-rule:evenodd;stroke-linejoin:round;stroke-miterlimit:2" height="1em" width="1em">
  <g transform="matrix(0.138889,0,0,0.138889,0,0)">
    <rect x="40.607" y="9.013" width="0.079" height="0.079" style="fill:rgb(51,72,197)"/>
    <g transform="matrix(7.51304,0,0,7.51304,-7.51304,-7.51304)">
      <path d="M24,6.75C24,3.576 21.424,1 18.25,1L6.75,1C3.576,1 1,3.576 1,6.75L1,18.25C1,21.424 3.576,24 6.75,24L18.25,24C21.424,24 24,21.424 24,18.25L24,6.75Z" style="fill:rgb(51,72,197)"/>
    </g>
    <g transform="matrix(0.916458,0,0,0.916458,7.20865,34.5334)">
      <path d="M140.25,40.27C132.67,16.493 110.516,0.18 85.56,0C64.574,-0.119 45.169,11.411 35.24,29.9C14.924,33.537 -0.009,51.381 -0.009,72.02C-0.009,88.705 9.75,103.932 24.91,110.9L25.99,111.4L26.05,111.4L26.05,99.23C16.592,93.426 10.811,83.095 10.811,71.999C10.811,55.751 23.205,41.959 39.36,40.23L42.36,39.92L43.67,37.18C51.309,21.03 67.695,10.731 85.56,10.85C106.981,10.997 125.701,25.823 130.75,46.64L131.75,50.75L135.98,50.82C150.293,51.122 161.918,62.944 161.98,77.26C161.98,87.37 156.15,95.62 146.26,99.81L146.26,111.36L146.97,111.12C162.92,105.91 172.83,92.93 172.83,77.26C172.742,58.606 158.744,42.713 140.25,40.27Z" style="fill:white;fill-rule:nonzero"/>
      <path d="M64.56,110L66.94,112.38C67.033,112.469 67.086,112.592 67.086,112.72C67.086,112.978 66.874,113.19 66.616,113.19C66.611,113.19 66.605,113.19 66.6,113.19L47.84,113.19C47.837,113.19 47.833,113.19 47.83,113.19C43.151,113.19 39.3,109.339 39.3,104.66L39.3,68.14C39.3,67.882 39.088,67.67 38.83,67.67L34.76,67.67C34.5,67.665 34.288,67.45 34.288,67.19C34.288,67.067 34.336,66.949 34.42,66.86L50.35,50.94C50.437,50.848 50.558,50.795 50.685,50.795C50.812,50.795 50.933,50.848 51.02,50.94L66.94,66.86C67.033,66.949 67.086,67.072 67.086,67.2C67.086,67.458 66.874,67.67 66.616,67.67C66.611,67.67 66.605,67.67 66.6,67.67L62.53,67.67C62.272,67.67 62.06,67.882 62.06,68.14L62.06,104C62.069,106.251 62.968,108.409 64.56,110Z" style="fill:white;fill-rule:nonzero"/>
      <path d="M99.76,110L102.14,112.38C102.233,112.469 102.286,112.592 102.286,112.72C102.286,112.978 102.074,113.19 101.816,113.19C101.811,113.19 101.805,113.19 101.8,113.19L83,113.19C82.997,113.19 82.993,113.19 82.99,113.19C78.311,113.19 74.46,109.339 74.46,104.66L74.46,77.32C74.46,77.317 74.46,77.313 74.46,77.31C74.46,77.052 74.248,76.84 73.99,76.84L70,76.84C69.74,76.835 69.528,76.62 69.528,76.36C69.528,76.237 69.576,76.119 69.66,76.03L85.55,60.11C85.637,60.018 85.758,59.965 85.885,59.965C86.012,59.965 86.133,60.018 86.22,60.11L102.14,76C102.233,76.089 102.286,76.212 102.286,76.34C102.286,76.598 102.074,76.81 101.816,76.81C101.811,76.81 101.805,76.81 101.8,76.81L97.73,76.81C97.472,76.81 97.26,77.022 97.26,77.28C97.26,77.283 97.26,77.287 97.26,77.29L97.26,104C97.269,106.251 98.168,108.409 99.76,110Z" style="fill:white;fill-rule:nonzero"/>
      <path d="M135,110L137.38,112.38C137.473,112.469 137.526,112.592 137.526,112.72C137.526,112.978 137.313,113.19 137.056,113.19C137.054,113.19 137.052,113.19 137.05,113.19L118.24,113.19C113.559,113.19 109.705,109.341 109.7,104.66L109.7,86.49C109.7,86.232 109.488,86.02 109.23,86.02L105.16,86.02C105.158,86.02 105.156,86.02 105.154,86.02C104.897,86.02 104.684,85.808 104.684,85.55C104.684,85.422 104.737,85.299 104.83,85.21L120.75,69.28C120.935,69.099 121.235,69.099 121.42,69.28L137.34,85.21C137.421,85.297 137.466,85.411 137.466,85.53C137.466,85.786 137.256,85.998 137,86L132.92,86C132.662,86 132.45,86.212 132.45,86.47L132.45,104C132.472,106.258 133.39,108.417 135,110Z" style="fill:white;fill-rule:nonzero"/>
    </g>
  </g>
</svg>
